<?xml version="1.0" encoding="UTF-8"?>
<map version="1.10" tiledversion="1.12.1" orientation="orthogonal" renderorder="right-down" width="60" height="60" tilewidth="32" tileheight="32" infinite="0" nextlayerid="10" nextobjectid="101">
 <tileset firstgid="1" source="TX Tileset Stone Ground.tsx"/>
 <tileset firstgid="65" source="TilesetFloorDetail.tsx"/>
 <tileset firstgid="129" source="TX Plant.tsx"/>
 <tileset firstgid="385" source="TXPlant-ezgif.com-crop.tsx"/>
 <tileset firstgid="386" source="block_push.tsx"/>
 <tileset firstgid="395" source="Sprite-lamp.tsx"/>
 <tileset firstgid="405" source="TX Props.tsx"/>
 <tileset firstgid="661" source="TX Shadow.tsx"/>
 <tileset firstgid="917" source="TX Shadow Plant.tsx"/>
 <tileset firstgid="1173" source="../tiles/dungeon/top_down_tree.tsx"/>
 <tileset firstgid="1174" source="top_down_Sprite-lamp.tsx"/>
 <tileset firstgid="1175" source="transition_bol_prototype.tsx"/>
 <layer id="2" name="base floor" width="60" height="60">
  <data encoding="csv">
0,0,82,0,0,0,0,0,0,0,82,0,82,0,0,0,0,0,0,0,82,0,82,0,0,82,82,0,0,0,0,0,0,82,0,0,82,82,0,0,0,0,82,82,0,0,0,82,0,0,0,0,82,0,0,82,82,82,0,0,
0,0,82,0,0,0,0,0,0,0,82,0,82,0,0,0,0,0,0,82,0,82,0,82,82,0,0,0,0,0,0,0,82,0,0,0,0,0,82,0,0,0,0,0,82,0,0,82,0,0,0,0,0,82,82,0,82,82,0,0,
0,82,0,0,0,0,0,0,0,0,82,0,82,0,0,0,0,82,82,0,82,82,82,0,0,0,0,0,0,0,0,0,82,0,0,0,0,0,0,82,0,0,0,0,0,82,82,0,82,0,0,0,0,0,82,82,0,82,0,0,
0,82,0,0,0,0,0,0,0,0,82,0,82,82,82,82,82,82,82,82,82,82,0,0,0,0,0,0,0,0,0,82,0,0,0,0,0,0,0,82,0,0,0,0,0,0,0,82,82,82,0,0,0,0,82,82,82,0,82,0,
82,0,0,0,0,0,0,0,82,82,82,82,82,0,0,82,0,0,82,82,0,0,82,82,0,0,0,0,0,0,82,0,0,0,0,0,0,0,0,0,82,0,0,0,0,0,0,0,0,82,82,0,82,82,82,0,0,82,82,0,
82,82,0,0,0,0,0,82,0,82,0,0,82,0,82,0,0,82,82,0,0,0,0,0,82,0,0,0,0,82,0,0,0,0,0,0,0,0,0,0,82,82,82,82,0,0,0,0,0,0,82,82,0,82,0,0,0,0,82,82,
82,82,0,0,0,0,82,0,0,82,0,0,82,82,0,0,82,82,0,0,0,0,0,0,0,82,82,0,0,82,0,0,0,0,0,0,0,0,0,82,82,82,0,82,82,82,82,0,0,82,0,82,0,82,0,0,0,0,0,82,
0,82,0,0,82,82,0,0,0,82,0,82,82,0,0,82,0,82,0,0,0,0,0,0,0,0,0,82,82,0,0,0,0,0,0,0,0,0,0,82,82,82,82,0,82,0,0,82,82,82,82,82,82,82,0,0,0,0,0,82,
0,82,0,0,82,0,0,0,0,82,0,82,0,0,82,0,82,0,0,0,0,0,0,0,0,0,0,0,82,82,0,82,82,82,82,82,82,82,82,82,82,82,82,82,82,0,82,0,0,0,0,82,82,82,0,0,0,0,0,82,
0,0,82,82,0,0,0,0,0,82,82,82,0,82,0,82,0,0,0,0,0,0,0,0,0,0,0,82,0,0,82,82,82,82,82,82,82,0,82,82,82,82,0,82,82,82,0,0,0,0,0,0,82,82,0,0,0,0,0,0,
0,0,82,82,0,0,0,0,0,82,82,82,82,0,0,82,0,0,0,0,0,0,0,0,0,0,0,82,82,82,82,82,82,82,82,0,0,82,0,0,0,0,82,82,82,82,82,82,0,0,0,0,82,82,82,82,0,0,0,0,
0,0,82,0,0,0,0,0,0,82,82,82,0,0,82,0,0,0,0,0,0,0,0,0,0,0,82,82,0,82,0,0,82,0,82,0,0,82,0,0,0,0,0,82,0,82,0,0,82,0,0,0,82,82,82,0,82,0,0,0,
0,82,82,0,0,0,0,82,82,82,82,82,0,0,82,0,0,0,0,0,0,0,0,0,0,0,82,0,82,0,82,82,0,0,0,82,82,0,0,0,0,0,82,82,82,82,0,0,0,82,82,0,82,0,82,82,82,0,0,0,
82,0,82,0,0,0,82,0,82,82,82,82,0,82,0,0,0,0,0,0,0,0,0,0,0,82,0,82,0,82,0,0,0,0,0,82,82,0,0,0,0,82,0,82,0,82,0,0,0,0,0,82,82,0,82,82,0,82,0,0,
82,0,82,0,0,82,82,0,0,82,0,82,0,82,0,0,0,0,0,0,0,0,0,0,82,82,82,0,0,82,0,0,0,0,0,82,82,0,0,82,82,0,0,0,82,82,0,0,0,0,0,82,82,0,0,82,0,82,0,0,
0,0,82,0,82,0,0,0,82,82,0,82,0,82,0,0,0,0,0,0,0,0,0,82,82,82,0,0,82,0,0,0,0,0,0,82,82,0,82,0,0,0,0,0,82,82,82,0,0,0,0,82,82,0,0,82,82,0,82,0,
0,0,82,82,0,0,0,0,82,82,0,82,0,82,0,0,0,0,0,0,0,0,0,82,82,82,0,82,0,0,0,0,0,0,0,82,0,82,0,0,0,0,0,0,82,82,82,0,0,0,0,82,82,0,0,0,82,0,0,82,
0,0,82,0,0,0,0,82,82,82,0,82,82,0,0,0,0,0,0,0,0,0,82,0,82,0,82,0,0,0,0,0,0,0,82,82,82,82,0,0,0,0,0,0,82,82,0,82,0,0,0,82,0,82,0,0,82,82,0,82,
0,82,0,0,0,0,0,82,82,0,82,0,82,0,0,0,0,0,0,0,0,0,82,82,82,0,82,0,0,0,0,0,0,0,82,0,0,0,82,0,0,0,0,0,82,82,0,82,0,0,0,82,0,82,0,0,0,82,0,82,
82,82,0,0,0,0,82,82,82,0,82,0,82,0,0,0,0,0,0,0,0,82,0,82,82,82,0,0,0,0,0,0,0,82,0,0,0,0,82,0,0,0,0,0,82,82,0,0,82,0,82,0,0,0,82,82,82,82,82,82,
82,82,0,0,0,0,82,82,82,0,82,0,82,0,0,0,0,0,0,0,82,0,0,82,0,82,0,0,0,0,0,82,82,82,0,0,0,0,82,0,0,0,0,0,82,82,0,82,82,82,82,82,82,82,82,0,0,82,82,82,
82,82,0,0,0,82,82,82,82,82,82,82,82,82,0,0,0,0,0,0,82,0,82,82,0,82,0,0,0,82,82,0,0,82,0,0,0,0,82,0,0,0,0,82,82,82,82,0,0,82,82,0,0,0,82,0,0,82,0,82,
0,82,0,0,0,82,0,82,82,0,82,0,82,0,82,82,82,82,82,82,0,0,82,0,0,82,0,82,82,0,0,0,82,0,0,0,0,0,0,82,82,82,82,82,0,82,0,0,0,82,82,0,0,0,82,0,0,82,0,82,
0,82,0,0,82,0,0,82,82,0,82,0,82,0,0,0,0,0,0,82,82,82,82,82,82,82,82,82,82,82,0,0,82,0,0,0,82,82,82,82,0,0,0,82,0,82,0,0,0,82,82,0,0,0,82,0,0,0,82,82,
0,82,0,0,82,0,0,82,82,82,82,82,0,0,0,0,0,0,82,82,83,82,82,83,82,82,82,82,83,0,82,0,82,82,82,82,0,0,0,82,0,0,0,82,0,82,0,0,0,82,0,0,0,0,82,0,0,0,82,0,
0,82,0,0,82,0,0,82,82,0,82,82,82,0,0,0,0,82,0,82,83,82,93,93,82,78,83,83,82,82,0,82,82,0,0,0,0,0,0,82,0,0,0,82,0,82,0,0,0,82,0,0,0,0,82,0,0,0,82,0,
0,82,0,82,0,0,82,82,82,0,82,82,0,82,82,0,82,0,83,82,83,82,82,82,82,78,83,83,82,82,82,82,82,0,0,0,0,0,0,82,0,0,0,82,0,82,0,0,0,82,0,0,0,0,82,0,0,0,82,0,
0,82,0,82,0,0,82,82,82,0,82,82,0,0,0,82,82,83,83,82,82,82,82,82,82,82,82,82,83,0,82,0,0,82,82,0,0,0,0,82,0,0,82,0,0,82,0,0,0,82,0,0,0,0,82,0,0,0,82,0,
0,82,0,82,0,0,82,82,82,0,82,82,0,0,0,82,0,82,82,82,82,82,78,82,83,83,78,83,83,0,82,0,0,0,82,82,82,0,0,82,0,0,82,0,0,82,0,0,0,82,0,0,0,82,0,0,0,0,82,0,
0,82,0,82,0,0,82,82,82,0,82,82,0,0,82,0,0,82,82,82,82,82,93,82,78,78,78,83,83,0,82,0,0,0,0,82,0,82,82,82,0,0,82,0,0,82,0,0,82,82,0,0,0,82,0,0,0,0,82,0,
0,82,0,82,0,0,82,82,82,0,82,0,82,0,82,0,82,0,83,82,82,82,83,82,83,83,83,83,0,82,0,0,0,0,0,0,82,0,0,82,82,0,82,0,0,82,0,0,82,82,0,0,82,0,0,0,0,0,82,0,
0,82,0,82,0,82,0,82,82,0,82,0,82,0,82,82,0,0,0,82,82,82,83,82,83,83,83,0,0,82,0,0,0,0,0,0,82,0,0,82,0,82,0,0,0,82,0,0,82,82,0,0,82,0,0,0,0,0,82,0,
0,82,82,0,0,82,0,82,82,0,82,0,82,82,82,0,0,0,0,82,82,82,0,82,83,83,0,0,0,82,0,0,0,0,0,0,82,0,0,82,0,82,82,82,0,82,0,0,82,82,0,82,0,0,0,0,0,0,82,0,
0,82,82,0,0,82,0,82,82,0,82,82,82,0,82,0,0,0,0,82,82,82,0,82,0,0,0,0,82,0,0,0,0,0,0,0,82,0,0,82,82,0,0,0,82,82,0,0,82,82,0,82,0,0,0,0,0,0,82,82,
0,82,82,0,0,82,82,0,0,82,82,0,82,0,82,0,0,0,0,82,82,82,0,82,0,0,0,0,82,0,0,0,0,0,0,0,82,0,0,82,82,0,0,0,0,82,82,82,0,82,82,0,0,0,0,0,0,0,82,82,
0,82,82,0,0,82,82,0,0,82,82,0,82,0,82,0,0,0,0,82,82,82,0,82,0,0,0,0,82,0,0,0,0,0,0,82,0,0,0,82,82,0,0,0,0,82,0,82,0,82,82,0,0,0,0,0,0,0,82,82,
0,82,82,0,82,0,82,82,82,0,82,0,0,82,82,0,0,0,0,82,82,82,82,82,0,0,0,0,82,0,0,0,0,0,0,82,0,0,0,82,82,0,0,0,0,82,0,82,82,82,0,0,0,0,0,0,0,0,82,82,
0,82,82,0,82,82,82,0,0,0,82,0,0,82,0,82,0,0,0,82,0,82,82,82,82,82,82,82,0,0,82,82,82,82,82,82,82,82,82,82,82,82,82,82,82,82,82,82,82,82,82,0,0,0,0,0,0,0,82,82,
82,82,0,82,82,82,0,0,0,0,82,82,0,82,0,82,0,0,0,0,82,82,82,0,0,82,82,82,82,82,0,0,0,82,0,0,0,0,82,82,0,0,0,0,82,0,0,82,0,82,82,82,82,0,0,0,0,0,82,82,
82,82,0,82,0,82,0,0,0,0,82,82,0,0,82,0,82,0,0,0,82,0,82,0,0,0,0,82,82,82,82,82,82,0,0,0,0,0,82,82,0,0,0,0,82,0,82,82,82,0,0,82,0,82,82,0,0,82,0,82,
0,82,82,82,0,82,0,0,0,0,82,0,82,0,82,0,82,0,65,66,67,67,67,0,0,0,0,0,0,0,0,0,0,0,0,0,0,0,82,82,0,0,0,0,82,0,82,0,82,0,0,0,82,0,82,0,0,82,82,82,
82,82,82,82,0,82,0,0,0,0,82,0,82,0,0,82,65,66,67,67,75,75,75,99,100,100,65,65,65,65,65,66,67,0,0,0,0,82,82,0,0,0,0,0,82,82,82,0,82,0,0,0,82,0,82,0,0,82,82,82,
66,67,68,68,68,68,68,68,68,68,68,68,68,68,68,68,65,66,67,75,83,83,83,99,100,108,73,73,65,73,73,65,66,67,0,0,0,82,82,0,0,0,0,0,82,0,82,0,82,0,0,0,0,82,82,0,82,0,82,0,
66,67,68,76,76,76,76,76,76,76,76,76,76,76,76,76,65,66,65,66,67,67,91,99,99,100,81,81,65,81,65,66,67,67,0,0,0,82,0,0,0,0,0,82,82,82,0,82,0,0,0,0,0,82,82,0,82,82,82,0,
66,67,68,84,84,84,84,84,84,84,84,84,84,84,84,84,65,66,65,66,67,75,0,99,107,108,65,66,67,89,65,66,67,75,0,0,0,82,0,0,0,0,82,0,82,82,0,82,0,0,0,0,0,82,82,0,82,82,82,0,
74,75,76,92,92,92,92,92,92,92,92,92,92,92,92,92,73,65,65,66,67,83,0,107,115,116,65,65,66,89,73,74,75,83,0,0,82,82,0,0,0,82,0,0,82,82,0,82,0,0,0,0,0,82,82,82,82,0,82,0,
82,83,84,89,89,89,89,89,89,89,89,81,81,81,89,90,81,73,65,65,66,67,82,115,123,124,73,65,65,65,81,82,83,91,0,0,82,0,0,0,82,0,0,0,82,82,0,82,0,0,0,0,82,0,82,82,0,82,0,0,
90,91,92,91,92,92,92,92,92,92,92,89,89,89,89,89,89,81,73,73,74,75,99,123,124,116,81,73,65,73,89,90,91,0,0,82,82,0,0,82,0,0,0,0,82,0,82,0,0,0,0,82,0,82,0,82,0,82,0,0,
73,81,81,73,81,81,81,81,89,90,91,92,92,92,92,89,90,89,81,81,82,83,107,123,124,124,89,81,73,81,89,90,91,0,0,82,0,0,82,0,0,0,0,0,82,0,82,0,0,0,0,82,82,0,82,82,82,0,0,0,
81,89,89,81,89,89,89,89,81,81,81,73,89,90,91,89,90,91,89,89,90,91,115,123,123,124,82,89,81,89,89,90,91,82,82,82,82,82,0,0,0,0,0,0,82,82,0,0,0,0,82,0,82,82,82,0,82,0,0,0,
89,89,90,89,89,90,91,92,89,89,89,81,65,66,89,90,91,92,84,0,0,0,123,123,124,116,82,82,89,89,90,91,0,82,82,82,82,82,0,0,0,0,0,0,82,0,0,82,82,82,82,82,0,0,82,0,82,0,0,82,
89,90,91,89,90,91,92,76,84,84,92,89,65,66,89,90,91,92,92,0,0,0,123,124,124,124,82,82,82,82,82,82,82,0,82,0,0,0,82,82,82,82,82,82,82,82,82,0,0,82,82,0,0,82,0,82,82,0,0,82,
89,90,91,89,90,91,92,84,92,92,90,91,65,66,67,89,90,91,92,0,0,0,82,0,0,82,0,0,82,82,82,82,82,82,0,0,0,0,0,0,0,0,0,82,82,0,0,0,0,82,0,0,0,82,0,82,82,0,82,0,
73,81,81,89,90,91,92,92,68,89,90,91,65,66,67,89,90,91,92,82,82,82,82,82,82,82,82,82,82,82,0,82,82,82,82,82,0,0,0,0,0,0,82,0,82,0,0,82,82,82,0,0,82,0,82,0,0,82,82,0,
81,89,89,89,89,90,91,92,76,89,90,65,65,66,67,89,90,91,92,0,0,82,0,0,0,0,0,0,82,82,0,0,82,82,82,82,82,82,82,82,82,82,82,82,82,82,82,0,0,82,0,82,0,0,82,0,0,82,0,0,
89,89,90,91,89,90,91,92,84,89,90,65,65,65,66,89,90,91,92,82,82,82,0,0,0,0,0,0,0,82,82,82,0,0,0,0,0,0,0,0,0,0,0,0,0,0,0,0,0,82,0,82,0,82,0,0,0,82,0,0,
89,90,91,92,89,90,91,92,92,68,68,66,73,65,66,89,90,91,92,0,82,82,82,82,82,82,82,82,82,0,82,82,82,0,0,0,0,0,0,0,0,0,0,0,0,0,0,0,0,82,82,0,82,0,0,0,82,82,0,0,
89,90,91,92,76,89,90,91,92,76,76,68,81,65,65,89,90,91,92,82,82,82,82,82,82,0,0,0,0,0,0,82,82,82,0,0,0,0,0,0,0,0,0,0,0,0,0,0,0,82,0,0,82,0,0,82,0,82,0,0,
89,90,91,92,84,89,90,91,92,84,84,76,89,73,73,89,90,91,92,82,0,0,0,0,0,0,0,0,0,0,0,0,0,82,82,82,0,0,0,0,0,0,0,0,0,0,0,0,82,82,0,82,0,0,82,0,82,0,0,0,
89,90,91,92,92,92,89,90,91,92,92,84,84,81,81,89,90,91,92,82,0,0,0,0,0,0,0,0,0,0,0,0,0,0,82,0,82,82,0,0,0,0,0,0,0,0,0,82,0,82,82,0,82,82,0,0,82,0,0,0
</data>
 </layer>
 <layer id="4" name="Tile Layer 4" width="60" height="60">
  <data encoding="csv">
0,0,0,0,0,0,0,0,0,0,0,0,0,0,0,0,0,0,0,0,0,0,0,0,0,0,0,0,0,0,0,0,0,0,0,0,0,0,0,0,0,0,0,0,0,0,0,0,0,0,0,0,0,0,0,0,0,0,0,0,
0,0,0,0,0,0,0,0,0,0,0,0,0,0,0,0,0,0,0,0,0,0,0,0,0,0,0,0,0,0,0,0,0,0,0,0,0,0,0,0,0,0,0,0,0,0,0,0,0,0,0,0,0,0,0,0,0,0,0,0,
0,0,0,0,0,0,0,0,0,0,0,0,0,0,0,0,0,0,0,0,0,0,0,0,0,0,0,0,0,0,0,0,0,0,0,0,0,0,0,0,0,0,0,0,0,0,0,0,0,0,0,0,0,0,0,0,0,0,0,0,
0,0,0,0,0,0,0,0,0,0,0,0,0,0,0,0,0,0,0,0,0,0,0,0,0,0,0,0,0,0,0,0,0,0,0,0,0,0,0,0,0,0,0,0,0,0,0,0,0,0,0,0,0,0,0,0,0,0,0,0,
0,0,0,0,0,0,0,0,0,0,0,0,0,0,0,0,0,0,0,0,0,0,0,0,0,0,0,0,0,0,0,0,0,0,0,0,0,0,0,0,0,0,0,0,0,0,0,0,0,0,0,0,0,0,0,0,0,0,0,0,
0,0,0,0,0,0,0,0,0,0,0,0,0,0,0,0,0,0,0,0,0,0,0,0,0,0,0,0,0,0,0,0,0,0,0,0,0,0,0,0,0,0,0,0,0,0,0,0,0,0,0,0,0,0,0,0,0,0,0,0,
0,0,0,0,0,0,0,0,0,0,0,0,0,0,0,0,0,0,0,0,0,0,0,0,0,0,0,0,0,0,0,0,0,0,0,0,0,0,0,0,0,0,0,0,0,0,0,0,0,0,0,0,0,0,0,0,0,0,0,0,
0,0,0,0,0,0,0,0,0,0,0,0,0,0,0,0,0,0,0,0,0,0,0,0,0,0,0,0,0,0,0,0,0,0,0,0,0,0,0,0,0,0,0,0,0,0,0,0,0,0,0,0,0,0,0,0,0,0,0,0,
0,0,0,0,0,0,0,0,0,0,0,0,0,0,0,0,0,0,0,0,0,0,0,0,0,0,0,0,0,0,0,0,0,0,0,0,0,0,0,0,0,0,0,0,0,0,0,0,0,0,0,0,0,0,0,0,0,0,0,0,
0,0,0,0,0,0,0,0,0,0,0,0,0,0,0,0,0,0,0,0,0,0,0,0,0,0,0,0,0,0,0,0,0,0,0,0,0,0,0,0,0,0,0,0,0,0,0,0,0,0,0,0,0,0,0,0,0,0,0,0,
0,0,0,0,0,0,0,0,0,0,0,0,0,0,0,0,0,0,0,0,0,0,0,0,0,0,0,0,0,0,0,0,0,0,0,0,0,0,0,0,0,0,0,0,0,0,0,0,0,0,0,0,0,0,0,0,0,0,0,0,
0,0,0,0,0,0,0,0,0,0,0,0,0,0,0,0,0,0,0,0,0,0,0,0,0,0,0,0,0,0,0,0,0,0,0,0,0,0,0,0,0,0,0,0,0,0,0,0,0,0,0,0,0,0,0,0,0,0,0,0,
0,0,0,0,0,0,0,0,0,0,0,0,0,0,0,0,0,0,0,0,0,0,0,0,0,0,0,0,0,0,0,0,0,0,0,0,0,0,0,0,0,0,0,0,0,0,0,0,0,0,0,0,0,0,0,0,0,0,0,0,
0,0,0,0,0,0,0,0,0,0,0,0,0,0,0,0,0,0,0,0,0,0,0,0,0,0,0,0,0,0,0,0,0,0,0,0,0,0,0,0,0,0,0,0,0,0,0,0,0,0,0,0,0,0,0,0,0,0,0,0,
0,0,0,0,0,0,0,0,0,0,0,0,0,0,0,0,0,0,0,0,0,0,0,0,0,0,0,0,0,0,0,0,0,0,0,0,0,0,0,0,0,0,0,0,0,0,0,0,0,0,0,0,0,0,0,0,0,0,0,0,
0,0,0,0,0,0,0,0,0,0,0,0,0,0,0,0,0,0,0,0,0,0,0,0,0,0,0,0,0,0,0,0,0,0,0,0,0,0,0,0,0,0,0,0,0,0,0,0,0,0,0,0,0,0,0,0,0,0,0,0,
0,0,0,0,0,0,0,0,0,0,0,0,0,0,0,0,0,0,0,0,0,0,0,0,0,0,0,0,0,0,0,0,0,0,0,0,0,0,0,0,0,0,0,0,0,0,0,0,0,0,0,0,0,0,0,0,0,0,0,0,
0,0,0,0,0,0,0,0,0,0,0,0,0,0,0,0,0,0,0,0,0,0,0,0,0,0,0,0,0,0,0,0,0,0,0,0,0,0,0,0,0,0,0,0,0,0,0,0,0,0,0,0,0,0,0,0,0,0,0,0,
0,0,0,0,0,0,0,0,0,0,0,0,0,0,0,0,0,0,0,0,0,0,0,0,0,0,0,0,0,0,0,0,0,0,0,0,0,0,0,0,0,0,0,0,0,0,0,0,0,0,0,0,0,0,0,0,0,0,0,0,
0,0,0,0,0,0,0,0,0,0,0,0,0,0,0,0,0,0,0,0,0,0,0,0,0,0,0,0,0,0,0,0,0,0,0,0,0,0,0,0,0,0,0,0,0,0,0,0,0,0,0,0,0,0,0,0,0,0,0,0,
0,0,0,0,0,0,0,0,0,0,0,0,0,0,0,0,0,0,0,0,0,0,0,0,0,0,0,0,0,0,0,0,0,0,0,0,0,0,0,0,0,0,0,0,0,0,0,0,0,0,0,0,0,0,0,0,0,0,0,0,
0,0,0,0,0,0,0,0,0,0,0,0,0,0,0,0,0,0,0,0,0,0,0,0,0,0,0,0,0,0,0,0,0,0,0,0,0,0,0,0,0,0,0,0,0,0,0,0,0,0,0,0,0,0,0,0,0,0,0,0,
0,0,0,0,0,0,0,0,0,0,0,0,0,0,0,0,0,0,0,0,0,0,0,0,0,0,0,0,0,0,0,0,0,0,0,0,0,0,0,0,0,0,0,0,0,0,0,0,0,0,0,0,0,0,0,0,0,0,0,0,
0,0,0,0,0,0,0,0,0,0,0,0,0,0,0,0,0,0,0,0,0,0,0,0,0,0,0,0,0,0,0,0,0,0,0,0,0,0,0,0,0,0,0,0,0,0,0,0,0,0,0,0,0,0,0,0,0,0,0,0,
0,0,0,0,0,0,0,0,0,0,0,0,0,0,0,0,0,0,0,0,0,0,0,0,0,0,0,0,0,0,0,0,0,0,0,0,0,0,0,0,0,0,0,0,0,0,0,0,0,0,0,0,0,0,0,0,0,0,0,0,
0,0,0,0,0,0,0,0,0,0,0,0,0,0,0,0,0,0,0,0,0,0,0,0,0,0,0,0,0,0,0,0,0,0,0,0,0,0,0,0,0,0,0,0,0,0,0,0,0,0,0,0,0,0,0,0,0,0,0,0,
0,0,0,0,0,0,0,0,0,0,0,0,0,0,0,0,0,0,0,0,0,0,0,0,0,0,0,0,0,0,0,0,0,0,0,0,0,0,0,0,0,0,0,0,0,0,0,0,0,0,0,0,0,0,0,0,0,0,0,0,
0,0,0,0,0,0,0,0,0,0,0,0,0,0,0,0,0,0,0,0,0,0,0,0,0,0,0,0,0,0,0,0,0,0,0,0,0,0,0,0,0,0,0,0,0,0,0,0,0,0,0,0,0,0,0,0,0,0,0,0,
0,0,0,0,0,0,0,0,0,0,0,0,0,0,0,0,0,0,0,0,0,0,0,0,0,0,0,0,0,0,0,0,0,0,0,0,0,0,0,0,0,0,0,0,0,0,0,0,0,0,0,0,0,0,0,0,0,0,0,0,
0,0,0,0,0,0,0,0,0,0,0,0,0,0,0,0,0,0,0,0,0,0,0,0,0,0,0,0,0,0,0,0,0,0,0,0,0,0,0,0,0,0,0,0,0,0,0,0,0,0,0,0,0,0,0,0,0,0,0,0,
0,0,0,0,0,0,0,0,0,0,0,0,0,0,0,0,0,0,0,0,0,0,0,0,0,0,0,0,0,0,0,0,0,0,0,0,0,0,0,0,0,0,0,0,0,0,0,0,0,0,0,0,0,0,0,0,0,0,0,0,
0,0,0,0,0,0,0,0,0,0,0,0,0,0,0,0,0,0,0,0,0,0,0,0,0,0,0,0,0,0,0,0,0,0,0,0,0,0,0,0,0,0,0,0,0,0,0,0,0,0,0,0,0,0,0,0,0,0,0,0,
0,0,0,0,0,0,0,0,0,0,0,0,0,0,0,0,0,0,0,0,0,0,0,0,0,0,0,0,0,0,0,0,0,0,0,0,0,0,0,0,0,0,0,0,0,0,0,0,0,0,0,0,0,0,0,0,0,0,0,0,
0,0,0,0,0,0,0,0,0,0,0,0,0,0,0,0,0,0,0,0,0,0,0,0,0,0,0,0,0,0,0,0,0,0,0,0,0,0,0,0,0,0,0,0,0,0,0,0,0,0,0,0,0,0,0,0,0,0,0,0,
0,0,0,0,0,0,0,0,0,0,0,0,0,0,0,0,0,0,0,0,0,0,0,0,0,0,0,0,0,0,0,0,0,0,0,0,0,0,0,0,0,0,0,0,0,0,0,0,0,0,0,0,0,0,0,0,0,0,0,0,
0,0,0,0,0,0,0,0,0,0,0,0,0,0,0,0,0,0,0,0,0,0,0,0,0,0,0,0,0,0,0,0,0,0,0,0,0,0,0,0,0,0,0,0,0,0,0,0,0,0,0,0,0,0,0,0,0,0,0,0,
0,0,0,0,0,0,0,0,0,0,0,0,0,0,0,0,0,0,0,0,0,0,0,0,0,0,0,0,0,0,0,0,0,0,0,0,0,0,0,0,0,0,0,0,0,0,0,0,0,0,0,0,0,0,0,0,0,0,0,0,
0,0,0,0,0,0,0,0,0,0,0,0,0,0,0,0,0,0,0,0,0,0,0,0,0,0,0,0,0,0,0,0,0,0,0,0,0,0,0,0,0,0,0,0,0,0,0,0,0,0,0,0,0,0,0,0,0,0,0,0,
0,0,0,0,0,0,0,0,0,0,0,0,0,0,0,0,0,0,0,0,0,0,0,0,0,0,0,0,0,0,0,0,0,0,0,0,0,0,0,0,0,0,0,0,0,0,0,0,0,0,0,0,0,0,0,0,0,0,0,0,
0,0,0,0,0,0,0,0,0,0,0,0,0,0,0,0,0,0,0,0,0,0,0,0,0,0,0,0,0,0,0,0,0,0,0,0,0,0,0,0,0,0,0,0,0,0,0,0,0,0,0,0,0,0,0,0,0,0,0,0,
0,0,0,0,0,0,0,0,0,0,0,0,0,0,0,0,0,0,0,0,0,0,0,0,0,0,0,0,0,0,0,0,0,0,0,0,0,0,0,0,0,0,0,0,0,0,0,0,0,0,0,0,0,0,0,0,0,0,0,0,
0,0,0,0,0,0,0,0,0,0,0,0,0,0,0,0,0,0,0,0,0,0,0,0,0,0,0,0,0,0,0,0,0,0,0,0,0,0,0,0,0,0,0,0,0,0,0,0,0,0,0,0,0,0,0,0,0,0,0,0,
0,0,0,0,0,0,0,0,0,0,0,0,0,0,0,0,0,0,0,0,0,0,0,0,0,0,0,0,0,0,0,0,0,0,0,0,0,0,0,0,0,0,0,0,0,0,0,0,0,0,0,0,0,0,0,0,0,0,0,0,
0,0,0,0,0,0,0,0,0,0,0,0,0,0,0,0,0,0,0,0,0,0,0,0,0,0,0,0,0,0,0,0,0,0,0,0,0,0,0,0,0,0,0,0,0,0,0,0,0,0,0,0,0,0,0,0,0,0,0,0,
0,0,0,0,0,0,0,0,0,0,0,0,0,0,0,0,0,0,0,0,0,0,0,0,0,0,0,0,0,0,0,0,0,0,0,0,0,0,0,0,0,0,0,0,0,0,0,0,0,0,0,0,0,0,0,0,0,0,0,0,
0,0,0,0,0,0,0,0,0,0,0,0,0,0,0,0,0,0,0,0,0,0,0,0,0,0,0,0,0,0,0,0,0,0,0,0,0,0,0,0,0,0,0,0,0,0,0,0,0,0,0,0,0,0,0,0,0,0,0,0,
0,0,0,0,0,0,0,0,0,0,0,0,0,0,0,0,0,0,0,0,0,0,0,0,0,0,0,0,0,0,0,0,0,0,0,0,0,0,0,0,0,0,0,0,0,0,0,0,0,0,0,0,0,0,0,0,0,0,0,0,
0,0,0,0,0,0,0,0,0,0,0,0,0,0,0,0,0,0,0,0,0,0,0,0,0,0,0,0,0,0,0,0,0,0,0,0,0,0,0,0,0,0,0,0,0,0,0,0,0,0,0,0,0,0,0,0,0,0,0,0,
0,0,0,0,0,0,0,0,0,0,0,0,0,0,0,0,0,0,0,0,0,0,0,0,0,0,0,0,0,0,0,0,0,0,0,0,0,0,0,0,0,0,0,0,0,0,0,0,0,0,0,0,0,0,0,0,0,0,0,0,
0,0,0,0,0,0,0,0,0,0,0,0,0,0,0,0,0,0,0,0,0,0,0,0,0,0,0,0,0,0,0,0,0,0,0,0,0,0,0,0,0,0,0,0,0,0,0,0,0,0,0,0,0,0,0,0,0,0,0,0,
0,0,0,0,0,0,0,0,0,0,0,0,0,0,0,0,0,0,0,0,0,0,0,0,0,0,0,0,0,0,0,0,0,0,0,0,0,0,0,0,0,0,0,0,0,0,0,0,0,0,0,0,0,0,0,0,0,0,0,0,
0,0,0,0,0,0,0,0,0,0,0,0,0,0,0,0,0,0,0,0,0,0,0,0,0,0,0,0,0,0,0,0,0,0,0,0,0,0,0,0,0,0,0,0,0,0,0,0,0,0,0,0,0,0,0,0,0,0,0,0,
0,0,0,0,0,0,0,0,0,0,0,0,0,0,0,0,0,0,0,0,0,0,0,0,0,0,0,0,0,0,0,0,0,0,0,0,0,0,0,0,0,0,0,0,0,0,0,0,0,0,0,0,0,0,0,0,0,0,0,0,
0,0,0,0,0,0,0,0,0,0,0,0,0,0,0,0,0,0,0,0,0,0,0,0,0,0,0,0,0,0,0,0,0,0,0,0,0,0,0,0,0,0,0,0,0,0,0,0,0,0,0,0,0,0,0,0,0,0,0,0,
0,0,0,0,0,0,0,0,0,0,0,0,0,0,0,0,0,0,0,0,0,0,0,0,0,0,0,0,0,0,0,0,0,0,0,0,0,0,0,0,0,0,0,0,0,0,0,0,0,0,0,0,0,0,0,0,0,0,0,0,
0,0,0,0,0,0,0,0,0,0,0,0,0,0,0,0,0,0,0,0,0,0,0,0,0,0,0,0,0,0,0,0,0,0,0,0,0,0,0,0,0,0,0,0,0,0,0,0,0,0,0,0,0,0,0,0,0,0,0,0,
0,0,0,0,0,0,0,0,0,0,0,0,0,0,0,0,0,0,0,0,0,0,0,0,0,0,0,0,0,0,0,0,0,0,0,0,0,0,0,0,0,0,0,0,0,0,0,0,0,0,0,0,0,0,0,0,0,0,0,0,
0,0,0,0,0,0,0,0,0,0,0,0,0,0,0,0,0,0,0,0,0,0,0,0,0,0,0,0,0,0,0,0,0,0,0,0,0,0,0,0,0,0,0,0,0,0,0,0,0,0,0,0,0,0,0,0,0,0,0,0,
0,0,0,0,0,0,0,0,0,0,0,0,0,0,0,0,0,0,0,0,0,0,0,0,0,0,0,0,0,0,0,0,0,0,0,0,0,0,0,0,0,0,0,0,0,0,0,0,0,0,0,0,0,0,0,0,0,0,0,0,
0,0,0,0,0,0,0,0,0,0,0,0,0,0,0,0,0,0,0,0,0,0,0,0,0,0,0,0,0,0,0,0,0,0,0,0,0,0,0,0,0,0,0,0,0,0,0,0,0,0,0,0,0,0,0,0,0,0,0,0
</data>
 </layer>
 <layer id="1" name="first floor" width="60" height="60">
  <data encoding="csv">
0,0,0,0,0,0,0,0,0,0,0,0,0,0,0,0,0,0,0,0,0,0,0,0,0,0,0,0,0,0,0,0,0,0,0,0,0,0,0,0,0,0,0,0,0,0,0,0,0,0,0,0,0,0,0,0,0,0,0,0,
0,0,0,0,0,0,0,0,0,0,0,0,0,0,0,0,0,0,0,0,0,0,0,0,0,0,0,0,0,0,0,0,0,0,0,0,0,0,0,0,0,0,0,0,0,0,0,0,0,0,0,0,0,0,0,0,0,0,0,0,
0,0,0,0,0,0,0,0,0,0,0,0,0,0,0,0,0,0,0,0,0,0,0,0,0,0,0,0,0,0,0,0,0,0,0,0,0,0,0,0,0,0,0,0,0,0,0,0,0,0,0,0,0,0,0,0,0,0,0,0,
0,0,0,0,0,0,0,0,0,0,0,0,0,0,0,0,0,0,0,0,0,0,0,0,0,0,0,0,0,0,0,0,0,0,0,0,0,0,0,0,0,0,0,0,0,0,0,0,0,0,0,0,0,0,0,0,0,0,0,0,
0,0,0,0,0,0,0,0,0,0,0,0,0,0,0,0,0,0,0,0,0,0,0,0,0,0,0,0,0,0,0,0,0,0,0,0,0,0,0,0,0,0,0,0,0,0,0,0,0,0,0,0,0,0,0,0,0,0,0,0,
0,0,0,0,0,0,0,0,0,0,0,0,0,0,0,0,0,0,0,0,0,0,0,0,0,0,0,0,0,0,0,0,0,0,0,0,0,0,0,0,0,0,0,0,0,0,0,0,0,0,0,0,0,0,0,0,0,0,0,0,
0,0,0,0,0,0,0,0,0,0,0,0,0,0,0,0,0,0,0,0,0,0,0,0,0,0,0,0,0,0,0,0,0,0,0,0,0,0,0,0,0,0,0,0,0,0,0,0,0,0,0,0,0,0,0,0,0,0,0,0,
0,0,0,0,0,0,0,0,0,0,0,0,0,0,0,0,0,0,0,0,0,0,0,0,0,0,0,0,0,0,0,0,0,0,0,0,0,0,0,0,0,0,0,0,0,0,0,0,0,0,0,0,0,0,0,0,0,0,0,0,
0,0,0,0,0,0,0,0,0,0,0,0,0,0,0,0,0,0,0,0,0,0,0,0,0,0,0,0,0,0,0,0,0,0,0,0,0,0,0,0,0,0,0,0,0,0,0,0,0,0,0,0,0,0,0,0,0,0,0,0,
0,0,0,0,0,0,0,0,0,0,0,0,0,0,0,0,0,0,0,0,0,0,0,0,0,0,0,0,0,0,0,0,0,0,0,0,0,0,0,0,0,0,0,0,0,0,0,0,0,0,0,0,0,0,0,0,0,0,0,0,
0,0,0,0,0,0,0,0,0,0,0,0,0,0,0,0,0,0,0,0,0,0,0,0,0,0,0,0,0,0,0,0,0,0,0,0,0,0,0,0,0,0,0,0,0,0,0,0,0,0,0,0,0,0,0,0,0,0,0,0,
0,0,0,0,0,0,0,0,0,0,0,0,0,0,0,0,0,0,0,0,0,0,0,0,0,0,0,0,0,0,0,0,0,0,0,0,0,0,0,0,0,0,0,0,0,0,0,0,0,0,0,0,0,0,0,0,0,0,0,0,
0,0,0,0,0,0,0,0,0,0,0,0,0,0,0,0,0,0,0,0,0,0,0,0,0,0,0,0,0,0,0,0,0,0,0,0,0,0,0,0,0,0,0,0,0,0,0,0,0,0,0,0,0,0,0,0,0,0,0,0,
0,0,0,0,0,0,0,0,0,0,0,0,0,0,0,0,0,0,0,0,0,0,0,0,0,0,0,0,0,0,0,0,0,0,0,0,0,0,0,0,0,0,0,0,0,0,0,0,0,0,0,0,0,0,0,0,0,0,0,0,
0,0,0,0,0,0,0,0,0,0,0,0,0,0,0,0,0,0,0,0,0,0,0,0,0,0,0,0,0,0,0,0,0,0,0,0,0,0,0,0,0,0,0,0,0,0,0,0,0,0,0,0,0,0,0,0,0,0,0,0,
0,0,0,0,0,0,0,0,0,0,0,0,0,0,0,0,0,0,0,0,0,0,0,0,0,0,0,99,100,0,0,0,0,0,0,0,0,0,0,0,0,0,0,0,0,0,0,0,0,0,0,0,0,0,0,0,0,0,0,0,
0,0,0,0,0,0,0,0,0,0,0,0,0,0,0,0,0,0,0,0,0,0,0,0,0,0,0,99,100,0,0,0,0,0,0,0,0,0,0,0,0,0,0,0,0,0,0,0,0,0,0,0,0,0,0,0,0,0,0,0,
0,0,0,0,0,0,0,0,0,0,0,0,0,0,0,0,0,0,0,0,0,0,0,0,0,0,0,99,100,0,0,0,0,0,0,0,0,0,0,0,0,0,0,0,0,0,0,0,0,0,0,0,0,0,0,0,0,0,0,0,
0,0,0,0,0,0,0,0,0,0,0,0,0,0,0,0,0,0,0,0,0,0,0,0,0,0,0,107,108,0,0,0,0,0,0,0,0,0,0,0,0,0,0,0,0,0,0,0,0,0,0,0,0,0,0,0,0,0,0,0,
0,0,0,0,0,0,0,0,0,0,0,0,0,0,0,0,0,0,0,0,0,0,65,0,0,0,65,115,116,65,65,0,0,0,0,0,0,0,0,0,0,0,0,0,0,0,0,0,0,0,0,0,0,0,0,0,0,0,0,0,
0,0,0,0,0,0,0,0,0,0,0,0,0,0,0,0,0,0,0,0,0,65,65,0,65,0,65,65,105,65,65,0,0,0,0,0,0,0,0,0,0,0,0,0,0,0,0,0,0,0,0,0,0,0,0,0,0,0,0,0,
0,0,0,0,0,0,0,0,0,0,0,0,0,0,0,0,0,65,65,65,65,65,0,0,65,0,65,65,105,0,0,65,65,0,0,0,0,0,0,0,0,0,0,0,0,0,0,0,0,0,0,0,0,0,0,0,0,0,0,0,
0,0,0,0,0,0,0,0,0,0,0,0,0,0,0,0,0,65,120,119,65,65,0,65,65,0,65,105,105,105,65,65,0,0,0,0,0,0,0,0,0,0,0,0,0,0,0,0,0,0,0,0,0,0,0,0,0,0,0,0,
0,0,0,0,0,0,0,0,0,0,0,0,0,0,0,0,0,65,109,114,104,0,105,105,105,105,105,105,0,0,65,65,0,0,0,0,0,0,0,0,0,0,0,0,0,0,0,0,0,0,0,0,0,0,0,0,0,0,0,0,
0,0,0,0,0,0,0,0,0,0,0,0,0,0,0,0,0,65,107,106,112,0,109,110,111,112,0,0,0,65,0,65,0,0,0,0,0,0,0,0,0,0,0,0,0,0,0,0,0,0,0,0,0,0,0,0,0,0,0,0,
0,0,0,0,0,0,0,0,0,0,0,0,0,0,0,0,0,65,124,106,94,0,95,0,0,0,0,0,0,0,65,0,0,0,0,0,0,0,0,0,0,0,0,0,0,0,0,0,0,0,0,0,0,0,0,0,0,0,0,0,
0,0,0,0,0,0,0,0,0,0,0,0,0,0,0,0,0,65,0,106,0,25,26,26,26,27,0,0,0,0,0,0,0,0,0,0,0,0,0,0,0,0,0,0,0,0,0,0,0,0,0,0,0,0,0,0,0,0,0,0,
0,0,0,0,0,0,0,0,0,0,0,0,0,0,0,0,0,0,122,121,0,0,0,0,0,0,0,0,105,65,65,0,0,0,0,0,0,0,0,0,0,0,0,0,0,0,0,0,0,0,0,0,0,0,0,0,0,0,0,0,
0,0,0,0,0,0,0,0,0,0,0,0,0,0,0,0,0,0,0,106,0,0,0,0,0,0,0,105,105,65,65,65,65,0,0,0,0,0,0,0,0,0,0,0,0,0,0,0,0,0,0,0,0,0,0,0,0,0,0,0,
0,0,0,0,0,0,0,0,0,0,0,0,0,0,0,0,0,0,0,105,105,105,105,105,105,105,105,105,105,65,0,65,65,0,0,0,0,0,0,0,0,0,0,0,0,0,0,0,0,0,0,0,0,0,0,0,0,0,0,0,
0,0,0,0,0,0,0,0,0,0,0,0,0,0,0,0,0,0,0,0,0,0,0,0,0,0,0,65,65,0,0,65,65,0,0,0,0,0,0,0,0,0,0,0,0,0,0,0,0,0,0,0,0,0,0,0,0,0,0,0,
0,0,0,0,0,0,0,0,0,0,0,0,0,0,0,0,0,0,0,0,0,0,0,0,0,0,65,65,65,0,0,0,65,0,0,0,0,0,0,0,0,0,0,0,0,0,0,0,0,0,0,0,0,0,0,0,0,0,0,0,
0,0,0,0,0,0,0,0,0,0,0,0,0,0,0,0,0,0,0,0,0,65,96,92,92,92,92,94,65,0,0,0,0,0,0,0,0,0,0,0,0,0,0,0,0,0,0,0,0,0,0,0,0,0,0,0,0,0,0,0,
0,0,0,0,0,0,0,0,0,0,0,0,0,0,0,0,0,0,0,0,0,65,91,91,65,65,65,65,0,0,0,0,0,0,0,0,0,0,0,0,0,0,0,0,0,0,0,0,0,0,0,0,0,0,0,0,0,0,0,0,
0,0,0,0,0,0,0,0,0,0,0,0,0,0,0,0,0,0,0,0,0,90,91,94,92,92,65,65,0,0,0,0,0,0,0,0,0,0,0,0,0,0,0,0,0,0,0,0,0,0,0,0,0,0,0,0,0,0,0,0,
0,0,0,0,0,0,0,0,0,0,0,0,0,0,0,0,0,0,0,0,0,0,90,96,90,92,92,65,0,0,0,0,0,0,0,0,0,0,0,0,0,0,0,0,0,0,0,0,0,0,0,0,0,0,0,0,0,0,0,0,
0,0,0,0,0,0,0,0,0,0,0,0,0,0,0,0,0,0,0,0,0,0,0,65,65,65,65,65,0,0,0,0,0,0,0,0,0,0,0,0,0,0,0,0,0,0,0,0,0,0,0,0,0,0,0,0,0,0,0,0,
0,0,0,0,0,0,0,0,0,0,0,0,0,0,0,0,0,0,0,0,0,0,0,0,0,0,0,0,0,0,0,0,0,0,0,0,0,0,0,0,0,0,0,0,0,0,0,0,0,0,0,0,0,0,0,0,0,0,0,0,
0,0,0,0,0,0,0,0,0,0,0,0,0,0,0,0,0,0,0,0,0,0,0,0,0,0,0,0,0,0,0,0,0,0,0,0,0,0,0,0,0,0,0,0,0,0,0,0,0,0,0,0,0,0,0,0,0,0,0,0,
0,0,0,0,0,0,0,0,0,0,0,0,0,0,0,0,0,0,0,0,0,0,0,0,0,0,0,0,0,0,0,0,0,0,0,0,0,0,0,0,0,0,0,0,0,0,0,0,0,0,0,0,0,0,0,0,0,0,0,0,
0,0,0,0,0,0,0,0,0,0,0,0,0,0,0,0,0,0,0,0,0,0,0,0,0,0,0,0,0,0,0,0,0,0,0,0,0,0,0,0,0,0,0,0,0,0,0,0,0,0,0,0,0,0,0,0,0,0,0,0,
0,0,0,0,0,0,0,0,0,0,0,0,0,0,0,0,0,0,0,0,0,0,0,0,0,0,0,0,0,0,0,0,0,0,0,0,0,0,0,0,0,0,0,0,0,0,0,0,0,0,0,0,0,0,0,0,0,0,0,0,
228,228,228,0,0,0,0,0,0,0,0,0,0,0,0,0,0,0,0,0,0,0,0,0,0,0,0,0,0,0,0,0,0,0,0,0,0,0,0,0,0,0,0,0,0,0,0,0,0,0,0,0,0,0,0,0,0,0,0,0,
228,228,228,0,0,0,0,0,0,0,0,0,0,0,0,0,0,0,0,0,77,77,93,78,77,77,78,94,78,0,0,0,0,0,0,0,0,0,0,0,0,0,0,0,0,0,0,0,0,0,0,0,0,0,0,0,0,0,0,0,
0,0,0,0,0,0,0,0,0,0,0,0,0,0,0,0,0,0,0,0,85,94,94,77,78,85,93,85,86,0,0,0,0,0,0,0,0,0,0,0,0,0,0,0,0,0,0,0,0,0,0,0,0,0,0,0,0,0,0,0,
0,0,0,0,0,0,106,106,0,0,0,0,0,0,0,0,0,0,0,0,0,0,85,77,77,85,86,86,86,0,0,0,0,0,0,0,0,0,0,0,0,0,0,0,0,0,0,0,0,0,0,0,0,0,0,0,0,0,0,0,
0,0,0,0,0,0,106,106,0,0,0,0,0,0,0,0,0,0,0,0,0,0,0,0,0,0,0,0,0,0,0,0,0,0,0,0,0,0,0,0,0,0,0,0,0,0,0,0,0,0,0,0,0,0,0,0,0,0,0,0,
107,106,106,106,106,106,106,106,104,106,106,106,106,106,0,0,0,0,0,0,0,0,0,0,0,0,0,0,0,0,0,0,0,0,0,0,0,0,0,0,0,0,0,0,0,0,0,0,0,0,0,0,0,0,0,0,0,0,0,0,
122,121,0,0,0,0,122,121,112,0,0,0,99,121,0,0,0,0,0,0,0,0,0,0,0,0,0,0,0,0,0,0,0,0,0,0,0,0,0,0,0,0,0,0,0,0,0,0,0,0,0,0,0,0,0,0,0,0,0,0,
99,100,0,0,0,0,0,0,0,0,0,0,99,100,0,0,0,0,0,0,0,0,0,0,0,0,0,0,0,0,0,0,0,0,0,0,0,0,0,0,0,0,0,0,0,0,0,0,0,0,0,0,0,0,0,0,0,0,0,0,
107,108,0,0,0,0,0,0,0,0,0,0,107,108,0,0,0,0,0,0,0,0,0,0,0,0,0,0,0,0,0,0,0,0,0,0,0,0,0,0,0,0,0,0,0,0,0,0,0,0,0,0,0,0,0,0,0,0,0,0,
115,116,0,0,0,0,0,0,0,0,0,0,115,116,0,0,0,0,0,0,0,0,0,0,0,0,0,0,0,0,0,0,0,0,0,0,0,0,0,0,0,0,0,0,0,0,0,0,0,0,0,0,0,0,0,0,0,0,0,0,
123,126,0,0,0,0,0,0,0,0,0,0,125,124,0,0,0,0,0,0,0,0,0,0,0,0,0,0,0,0,0,0,0,0,0,0,0,0,0,0,0,0,0,0,0,0,0,0,0,0,0,0,0,0,0,0,0,0,0,0,
99,122,0,0,0,0,0,0,0,0,0,0,122,108,0,0,0,0,0,0,0,0,0,0,0,0,0,0,0,0,0,0,0,0,0,0,0,0,0,0,0,0,0,0,0,0,0,0,0,0,0,0,0,0,0,0,0,0,0,0,
107,108,0,0,0,0,0,0,0,0,0,0,115,116,0,0,0,0,0,0,0,0,0,0,0,0,0,0,0,0,0,0,0,0,0,0,0,0,0,0,0,0,0,0,0,0,0,0,0,0,0,0,0,0,0,0,0,0,0,0,
115,126,0,0,0,0,0,0,0,0,0,0,125,124,0,0,0,0,0,0,0,0,0,0,0,0,0,0,0,0,0,0,0,0,0,0,0,0,0,0,0,0,0,0,0,0,0,0,0,0,0,0,0,0,0,0,0,0,0,0,
123,122,0,0,0,0,0,0,0,0,0,0,122,100,0,0,0,0,0,0,0,0,0,0,0,0,0,0,0,0,0,0,0,0,0,0,0,0,0,0,0,0,0,0,0,0,0,0,0,0,0,0,0,0,0,0,0,0,0,0,
107,108,0,0,0,0,0,0,0,0,0,0,107,108,0,0,0,0,0,0,0,0,0,0,0,0,0,0,0,0,0,0,0,0,0,0,0,0,0,0,0,0,0,0,0,0,0,0,0,0,0,0,0,0,0,0,0,0,0,0,
115,116,0,0,0,0,0,0,0,0,0,0,115,116,0,0,0,0,0,0,0,0,0,0,0,0,0,0,0,0,0,0,0,0,0,0,0,0,0,0,0,0,0,0,0,0,0,0,0,0,0,0,0,0,0,0,0,0,0,0,
123,124,0,0,0,0,0,0,0,0,0,0,123,124,0,0,0,0,0,0,0,0,0,0,0,0,0,0,0,0,0,0,0,0,0,0,0,0,0,0,0,0,0,0,0,0,0,0,0,0,0,0,0,0,0,0,0,0,0,0
</data>
 </layer>
 <objectgroup id="7" name="Object Layer 2" opacity="0.45" tintcolor="#000000" mode="color-burn">
  <object id="85" gid="764" x="390" y="1495" width="32" height="32"/>
  <object id="86" gid="764" x="456" y="1460" width="32" height="32"/>
  <object id="87" gid="764" x="216" y="1498" width="32" height="32"/>
  <object id="88" gid="764" x="70" y="1493" width="32" height="32"/>
  <object id="89" gid="764" x="41" y="1461" width="32" height="32"/>
  <object id="90" gid="1173" x="872" y="1527" width="96" height="96"/>
  <object id="91" gid="1173" x="614" y="1525" width="96" height="96"/>
  <object id="92" gid="1173" x="392" y="1457" width="96" height="96"/>
  <object id="93" gid="1173" x="487" y="1561" width="96" height="96"/>
  <object id="94" gid="1173" x="518" y="1714" width="96" height="96"/>
  <object id="95" gid="1173" x="420" y="1649" width="96" height="96"/>
  <object id="96" gid="1173" x="261" y="1524" width="96" height="96"/>
  <object id="97" gid="1173" x="103" y="1522" width="96" height="96"/>
 </objectgroup>
 <objectgroup id="5" name="objects">
  <object id="53" gid="488" x="269.416" y="1709.26" width="32" height="32">
   <properties>
    <property name="text" value="rechts"/>
   </properties>
  </object>
  <object id="54" gid="520" x="143.544" y="1707.66" width="32" height="32">
   <properties>
    <property name="text">    ga links
       af 
voor naar boven</property>
   </properties>
  </object>
  <object id="55" gid="424" x="736.098" y="853.314" width="32" height="32"/>
  <object id="66" gid="543" x="288" y="1344" width="32" height="32"/>
  <object id="67" gid="1173" x="506.723" y="1731.16" width="96" height="96"/>
  <object id="68" gid="1173" x="407.639" y="1669.62" width="96" height="96"/>
  <object id="69" gid="1173" x="602.889" y="1540.86" width="96" height="96"/>
  <object id="70" gid="1173" x="858.593" y="1541.56" width="96" height="96"/>
  <object id="71" gid="1173" x="474.865" y="1571.94" width="96" height="96"/>
  <object id="72" gid="1173" x="378.57" y="1475.04" width="96" height="96"/>
  <object id="73" gid="1173" x="250.555" y="1540.88" width="96" height="96"/>
  <object id="74" gid="1173" x="91.3681" y="1539.48" width="96" height="96"/>
  <object id="79" gid="1174" x="384" y="1504" width="32" height="32"/>
  <object id="80" gid="1174" x="448" y="1472" width="32" height="32"/>
  <object id="81" gid="1174" x="209" y="1506" width="32" height="32"/>
  <object id="82" gid="1174" x="64" y="1504" width="32" height="32"/>
  <object id="83" gid="1174" x="32" y="1472" width="32" height="32"/>
 </objectgroup>
 <objectgroup id="9" name="Object Layer 3"/>
</map>
